X:488
T:Craig's reel
C:anon.
O:Ireland
R:Reel
B:O'Neills's 1001
Z:Transcribed by Frank Nordberg http://www.musicaviva.com
M:C|
L:1/8
K:D
FDFA B2Bc|dBcA BEEG|FDFA BABc|dABG FDD2|FDFA B2Bc|dBcA BEEG|(3FED EF GABc|dABG FDD2||
d2fd Adfd|Adfd eBB2|d2fd Adfd|(3fga eg Adfd|Adfd eBB2|g2fd (3efg fe|BGAG FDD2|]


